static/assets/img/icons/theme/media/add-music.svg

<svg height="24" viewBox="0 0 24 24" width="24" xmlns="http://www.w3.org/2000/svg"><g fill="none" fill-rule="evenodd"><path d="m0 0h24v24h-24z" opacity="0"/><g fill="#000"><path d="m8.97852058 18.8007059c-.17822727 1.2389269-1.44379046 2.1992941-2.97852058 2.1992941-1.65685425 0-3-1.1192881-3-2.5s1.34314575-2.5 3-2.5c.35063542 0 .68722107.0501285 1 .1422548v-10.21054387c0-.51277151.31978104-.96604476.78944063-1.11899168l5.74999997-1.75853614c.724422-.2359115 1.4605594.3280722 1.4605594 1.11899169v1.75853613c0 .58617872-.5488366.96054513-1 1.06828907-.6491332.15502181-2.3157999.48835515-5 1v10.5512168c0 .0897788-.0072807.1729019-.02147942.2494891z" fill-rule="nonzero"/><path d="m16 13v-2c0-.5522847.4477153-1 1-1s1 .4477153 1 1v2h2c.5522847 0 1 .4477153 1 1s-.4477153 1-1 1h-2v2c0 .5522847-.4477153 1-1 1s-1-.4477153-1-1v-2h-2c-.5522847 0-1-.4477153-1-1s.4477153-1 1-1z" opacity=".3"/></g></g></svg>

<svg width="24px" height="24px" viewBox="0 0 24 24" version="1.1" xmlns="http://www.w3.org/2000/svg" xmlns:xlink="http://www.w3.org/1999/xlink">
    <title>Icon For Add-music</title>
    <g stroke="none" stroke-width="1" fill="none" fill-rule="evenodd">
        <rect opacity="0" x="0" y="0" width="24" height="24"></rect>
        <path d="M8.97852058,18.8007059 C8.80029331,20.0396328 7.53473012,21 6,21 C4.34314575,21 3,19.8807119 3,18.5 C3,17.1192881 4.34314575,16 6,16 C6.35063542,16 6.68722107,16.0501285 7,16.1422548 L7,5.93171093 C7,5.41893942 7.31978104,4.96566617 7.78944063,4.81271925 L13.5394406,3.05418311 C14.2638626,2.81827161 15,3.38225531 15,4.1731748 C15,4.95474642 15,5.54092513 15,5.93171093 C15,6.51788965 14.4511634,6.89225606 14,7 C13.3508668,7.15502181 11.6842001,7.48835515 9,8 L9,18.5512168 C9,18.6409956 8.9927193,18.7241187 8.97852058,18.8007059 Z" fill="#000000" fill-rule="nonzero"></path>
        <path d="M16,13 L16,11 C16,10.4477153 16.4477153,10 17,10 C17.5522847,10 18,10.4477153 18,11 L18,13 L20,13 C20.5522847,13 21,13.4477153 21,14 C21,14.5522847 20.5522847,15 20,15 L18,15 L18,17 C18,17.5522847 17.5522847,18 17,18 C16.4477153,18 16,17.5522847 16,17 L16,15 L14,15 C13.4477153,15 13,14.5522847 13,14 C13,13.4477153 13.4477153,13 14,13 L16,13 Z" fill="#000000" opacity="0.3"></path>
    </g>
</svg>
